epam-assets/icon-sources/18/internal-logo/presale.svg

<svg width="18" height="18" viewBox="0 0 18 18" fill="none" xmlns="http://www.w3.org/2000/svg">
<g id="18/internal-logo/presale">
<path id="icon" fill-rule="evenodd" clip-rule="evenodd" d="M11.1094 8.15625C10.4105 8.15625 9.84381 7.58957 9.84381 6.89062C9.84381 6.19168 10.4105 5.625 11.1094 5.625C11.8084 5.625 12.3751 6.19168 12.3751 6.89062C12.3751 7.58957 11.8084 8.15625 11.1094 8.15625ZM11.1094 3.51562L5.37066 9.25439C7.11227 9.51121 8.48885 10.8878 8.74566 12.6294L14.4844 6.89062C15.7501 5.625 15.7501 3.66908 15.7501 2.25C14.331 2.25 12.3751 2.25 11.1094 3.51562ZM4.7813 9L7.31255 6.46875C5.51969 6.46875 3.93755 6.89062 2.67193 9H4.7813ZM9.00005 13.2188L11.5313 10.6875C11.5313 12.4804 11.1094 14.0625 9.00005 15.3281V13.2188ZM2.79543 15.2045C2.87791 15.2869 2.9858 15.3281 3.0938 15.3281C3.2018 15.3281 3.3097 15.2869 3.39217 15.2045L6.76707 11.8295C6.93192 11.6649 6.93192 11.3976 6.76707 11.233C6.60254 11.0681 6.33507 11.0681 6.17054 11.233L2.79543 14.608C2.63069 14.7726 2.63069 15.0399 2.79543 15.2045ZM2.67193 13.2188C2.56393 13.2188 2.45603 13.1775 2.37356 13.0951C2.20881 12.9305 2.20881 12.6632 2.37356 12.4986L4.90491 9.96736C5.06944 9.80251 5.33691 9.80251 5.50144 9.96736C5.66629 10.132 5.66629 10.3993 5.50144 10.5639L2.9703 13.0951C2.88782 13.1775 2.77993 13.2188 2.67193 13.2188ZM4.90491 15.6264C4.98718 15.7088 5.09528 15.75 5.20318 15.75C5.31107 15.75 5.41918 15.7088 5.50144 15.6264L8.03269 13.0951C8.19754 12.9305 8.19754 12.6632 8.03269 12.4986C7.86816 12.3338 7.60069 12.3338 7.43616 12.4986L4.90491 15.0299C4.74007 15.1945 4.74007 15.4618 4.90491 15.6264Z" fill="#6C6F80"/>
</g>
</svg>

<svg xmlns="http://www.w3.org/2000/svg" width="18" height="18" fill="none" viewBox="0 0 18 18">
  <path fill="#6C6F80" fill-rule="evenodd" d="M11.11 8.156a1.266 1.266 0 1 1 0-2.531 1.266 1.266 0 0 1 0 2.531Zm0-4.64L5.37 9.254a4.01 4.01 0 0 1 3.376 3.375l5.738-5.738C15.75 5.625 15.75 3.669 15.75 2.25c-1.419 0-3.375 0-4.64 1.266ZM4.78 9l2.532-2.531c-1.792 0-3.374.421-4.64 2.531h2.11ZM9 13.219l2.53-2.531c0 1.792-.422 3.374-2.531 4.64v-2.11Zm-6.206 1.986a.42.42 0 0 0 .597 0l3.375-3.376a.422.422 0 1 0-.596-.596l-3.376 3.375a.422.422 0 0 0 0 .596Zm-.123-1.986a.42.42 0 0 1-.298-.72l2.53-2.532a.422.422 0 1 1 .597.597l-2.53 2.531a.42.42 0 0 1-.3.124Zm2.233 2.407a.42.42 0 0 0 .596 0l2.532-2.53a.422.422 0 1 0-.597-.597l-2.531 2.53a.422.422 0 0 0 0 .597Z" clip-rule="evenodd"/>
</svg>
